X:1
T:Rendez à Dieu, 98.98 D
T:Rendez à Dieu, 98.98 D
T:Louis Bourgeois, 1543, rev. 1551
T:Public Domain Courtesy of the Cyber Hymnal™
C:Louis Bourgeois, 1543, rev. 1551
Z:Public Domain
Z:Courtesy of the Cyber Hymnal™
%%score ( 1 2 ) ( 3 4 )
L:1/8
Q:1/4=117
M:none
K:G
V:1 treble 
V:2 treble 
V:3 bass 
V:4 bass 
V:1
 G4 [CE]2 [A,D]2 | [EG]2 [DG]2 [EA]2 [Ec]2 | [GB]4 [FA]4 | [Fd]4 [FB]2 [FB]2 | %4
 G2 [Ac]2 B4 [FA]4 x2 | G8 | [B,G]4 [CE]2 [A,D]2 | [DG]2 [EG]2 [FA]2 [Gc]2 | [GB]4 [CEA]4 | %9
 [Gd]4 [Fc]2 [GB]2 | [EA]2 [EG]2 [DG]2 [DF]2 | [DG]8 | [Gd]4 [Gd]2 [Fc]2 | B4 [FA]4 [EG]2 [DF]2 | %14
 E4 D4 | [A,D]4 [DG]2 [EG]2 [DF]2 [B,E]2 | [EG]4 [EA]4 | [^DB]8 | [B,G]4 [EG]2 [DA]2 | %19
 [DB]2 [EG]2 c2 z x3 | [^GB]4 A4 | [Gd]4 [Gc]2 [GB]2 | [EA]2 G2 [DG]2 [DF]2 | [DG]8 |] %24
V:2
 (B,2 D2) x4 | x8 | x8 | x8 | G2 (G2 E2) x8 | G8 | x8 | x8 | x8 | x8 | x8 | x8 | x8 | D2 E2 x8 | %14
 (D2 ^C2) D4 | x12 | x8 | x8 | x8 | x4 E3 (c2 F) | x4 E2 F2 | x8 | x2 (DE) x4 | x8 |] %24
V:3
 G,4 [C,G,]2 [D,F,]2 | [E,B,]2 [B,,G,]2 [C,C]2 [A,,C]2 | ([B,,D]2 [C,E]2) [D,A,]4 | %3
 [B,,B,]4 [D,B,]2 [D,B,]2 | [E,B,]2 [A,,E]2 D6 z2 C2 | [G,,B,]8 | G,4 [C,G,]2 [C,F,]2 | %7
 [B,,G,]2 [E,B,]2 [D,D]2 [C,E]2 | D4 [A,,A,]4 | [G,,B,]4 [A,,C]2 [B,,D]2 | %10
 [C,C]2 [C,B,]2 [D,A,]2 [D,A,]2 | [G,,B,]8 | [G,,B,]4 [G,,B,]2 [A,,C]2 | %13
 G,4 [D,D]4 [E,B,]2 [F,A,]2 | [G,B,]2 A,2 [D,F,]4 | [D,F,]4 [B,,G,]2 [C,C]2 [D,A,]2 [E,G,]2 | %16
 B,4 [C,E,]4 | [B,,F,]8 | [E,G,]4 [E,B,]2 [F,A,]2 | G,2 [E,B,]2 E2 z x3 | (E2 D2) [A,,C]4 | %21
 [B,,D]4 [C,E]2 [G,,D]2 | C2 B,2 [D,A,]2 [D,A,]2 | [G,,B,]8 |] %24
V:4
 (G,,2 B,,2) x4 | x8 | x8 | x8 | x4 (B,,2 C,2) B,,4 x2 | x8 | (E,2 D,2) x4 | x8 | (G,,2 B,,2) x4 | %9
 x8 | x8 | x8 | x8 | B,,2 C,2 x8 | x2 A,2 x4 | x12 | (E,2 D,2) x4 | x8 | x8 | G,2 C,3 (E2 D,) x2 | %20
 E,4 x4 | x8 | (A,,B,,) (B,,C,) x4 | x8 |] %24

